papirus/48x48/apps/filezilla.svg

<?xml version="1.0" encoding="UTF-8" standalone="no"?>
<!-- Created with Inkscape (http://www.inkscape.org/) -->

<svg
   xmlns:dc="http://purl.org/dc/elements/1.1/"
   xmlns:cc="http://creativecommons.org/ns#"
   xmlns:rdf="http://www.w3.org/1999/02/22-rdf-syntax-ns#"
   xmlns:svg="http://www.w3.org/2000/svg"
   xmlns="http://www.w3.org/2000/svg"
   xmlns:xlink="http://www.w3.org/1999/xlink"
   xmlns:sodipodi="http://sodipodi.sourceforge.net/DTD/sodipodi-0.dtd"
   xmlns:inkscape="http://www.inkscape.org/namespaces/inkscape"
   id="svg2817"
   height="48"
   width="48"
   version="1.0"
   inkscape:version="0.91 r"
   sodipodi:docname="filezilla.svg">
  <metadata
     id="metadata57">
    <rdf:RDF>
      <cc:Work
         rdf:about="">
        <dc:format>image/svg+xml</dc:format>
        <dc:type
           rdf:resource="http://purl.org/dc/dcmitype/StillImage" />
        <dc:title />
      </cc:Work>
    </rdf:RDF>
  </metadata>
  <sodipodi:namedview
     pagecolor="#ffffff"
     bordercolor="#666666"
     borderopacity="1"
     objecttolerance="10"
     gridtolerance="10"
     guidetolerance="10"
     inkscape:pageopacity="0"
     inkscape:pageshadow="2"
     inkscape:window-width="1600"
     inkscape:window-height="840"
     id="namedview55"
     showgrid="false"
     inkscape:zoom="10.66"
     inkscape:cx="19.240997"
     inkscape:cy="24.636009"
     inkscape:window-x="-4"
     inkscape:window-y="34"
     inkscape:window-maximized="1"
     inkscape:current-layer="svg2817" />
  <defs
     id="defs2819">
    <linearGradient
       inkscape:collect="always"
       id="linearGradient4185">
      <stop
         style="stop-color:#000000;stop-opacity:1;"
         offset="0"
         id="stop4187" />
      <stop
         style="stop-color:#000000;stop-opacity:0;"
         offset="1"
         id="stop4189" />
    </linearGradient>
    <linearGradient
       id="linearGradient2815"
       y2="17.5"
       spreadMethod="reflect"
       gradientUnits="userSpaceOnUse"
       x2="3.0052"
       y1="17.5"
       x1="44.995">
      <stop
         id="stop3277"
         style="stop-color:#fff;stop-opacity:0"
         offset="0" />
      <stop
         id="stop3283"
         style="stop-color:#fff"
         offset=".245" />
      <stop
         id="stop3285"
         style="stop-color:#fff"
         offset=".77350" />
      <stop
         id="stop3279"
         style="stop-color:#fff;stop-opacity:0"
         offset="1" />
    </linearGradient>
    <linearGradient
       id="linearGradient2813"
       y2="8"
       gradientUnits="userSpaceOnUse"
       x2="26"
       y1="22"
       x1="26">
      <stop
         id="stop3829"
         style="stop-color:#fff"
         offset="0" />
      <stop
         id="stop4295"
         style="stop-color:#fff"
         offset=".30213" />
      <stop
         id="stop4293"
         style="stop-color:#fff;stop-opacity:.69020"
         offset=".34361" />
      <stop
         id="stop3832"
         style="stop-color:#fff;stop-opacity:0"
         offset="1" />
    </linearGradient>
    <linearGradient
       id="linearGradient2811"
       y2="45.934"
       gradientUnits="userSpaceOnUse"
       x2="43.007"
       gradientTransform="matrix(1.2822 0 0 1.1747 -6.0702 -5.3032)"
       y1="30.555"
       x1="23.452">
      <stop
         id="stop4561"
         style="stop-color:#fff;stop-opacity:0"
         offset="0" />
      <stop
         id="stop4563"
         style="stop-color:#fff;stop-opacity:0"
         offset="1" />
    </linearGradient>
    <linearGradient
       id="linearGradient2809"
       y2="45.042"
       gradientUnits="userSpaceOnUse"
       x2="15.464"
       y1="7.9757"
       x1="15.464">
      <stop
         id="stop3297"
         style="stop-color:#c9af8b"
         offset="0" />
      <stop
         id="stop3299"
         style="stop-color:#ad8757"
         offset=".23942" />
      <stop
         id="stop3301"
         style="stop-color:#c2a57f"
         offset=".27582" />
      <stop
         id="stop3303"
         style="stop-color:#9d7d53"
         offset="1" />
    </linearGradient>
    <linearGradient
       id="linearGradient2807"
       y2="37.277"
       gradientUnits="userSpaceOnUse"
       x2="24.997"
       gradientTransform="matrix(1.2822 0 0 1.5573 -6.0702 -15.291)"
       y1="15.378"
       x1="24.823">
      <stop
         id="stop3201"
         style="stop-color:#dac197"
         offset="0" />
      <stop
         id="stop3203"
         style="stop-color:#c1a581"
         offset=".23942" />
      <stop
         id="stop3205"
         style="stop-color:#dbc298"
         offset=".27582" />
      <stop
         id="stop3207"
         style="stop-color:#a68b60"
         offset="1" />
    </linearGradient>
    <radialGradient
       id="radialGradient2805"
       xlink:href="#linearGradient3681"
       gradientUnits="userSpaceOnUse"
       cy="41.5"
       cx="5"
       gradientTransform="matrix(.59382 0 0 1.5367 41.141 -103.94)"
       r="5" />
    <linearGradient
       id="linearGradient2803"
       y2="35"
       gradientUnits="userSpaceOnUse"
       x2="17.554"
       gradientTransform="matrix(1.757 0 0 1.397 -17.394 -16.412)"
       y1="46"
       x1="17.554">
      <stop
         id="stop3705"
         style="stop-opacity:0"
         offset="0" />
      <stop
         id="stop3711"
         offset=".5" />
      <stop
         id="stop3707"
         style="stop-opacity:0"
         offset="1" />
    </linearGradient>
    <linearGradient
       id="linearGradient3681">
      <stop
         id="stop3683"
         offset="0" />
      <stop
         id="stop3685"
         style="stop-opacity:0"
         offset="1" />
    </linearGradient>
    <radialGradient
       id="radialGradient2801"
       xlink:href="#linearGradient3681"
       gradientUnits="userSpaceOnUse"
       cy="41.5"
       cx="5"
       gradientTransform="matrix(.59382 0 0 1.5367 -6.6595 -103.94)"
       r="5" />
    <linearGradient
       id="linearGradient2789"
       y2="25.411"
       gradientUnits="userSpaceOnUse"
       x2="57.726"
       gradientTransform="matrix(0 .71282 -.67402 0 50.746 15.046)"
       y1="25.411"
       x1="13.472">
      <stop
         id="stop4224"
         style="stop-color:#fff"
         offset="0" />
      <stop
         id="stop4226"
         style="stop-color:#fff;stop-opacity:0"
         offset="1" />
    </linearGradient>
    <linearGradient
       id="linearGradient2787"
       y2="20.71"
       gradientUnits="userSpaceOnUse"
       x2=".81572"
       gradientTransform="matrix(0 -.61460 -.58384 0 46.949 46.633)"
       y1="20.71"
       x1="28.315">
      <stop
         id="stop2266"
         style="stop-color:#d7e866"
         offset="0" />
      <stop
         id="stop2268"
         style="stop-color:#8cab2a"
         offset="1" />
    </linearGradient>
    <linearGradient
       inkscape:collect="always"
       xlink:href="#linearGradient4185"
       id="linearGradient4191"
       x1="24.291777"
       y1="22.120689"
       x2="24.238728"
       y2="3.9509284"
       gradientUnits="userSpaceOnUse" />
    <linearGradient
       gradientTransform="translate(48.866283,0.76067808)"
       gradientUnits="userSpaceOnUse"
       xlink:href="#linearGradient3924-3"
       id="linearGradient4181"
       y2="43"
       x2="23.99999"
       y1="4.999989"
       x1="23.99999" />
    <linearGradient
       id="linearGradient3924-3">
      <stop
         offset="0"
         style="stop-color:#ffffff;stop-opacity:1"
         id="stop3926-7" />
      <stop
         offset="0.06316455"
         style="stop-color:#ffffff;stop-opacity:0.23529412"
         id="stop3928-3" />
      <stop
         offset="0.95056331"
         style="stop-color:#ffffff;stop-opacity:0.15686275"
         id="stop3930-7" />
      <stop
         offset="1"
         style="stop-color:#ffffff;stop-opacity:0.39215687"
         id="stop3932-1" />
    </linearGradient>
    <linearGradient
       gradientTransform="matrix(0.7037037,0,0,0.7037037,-39.333369,2.4814295)"
       gradientUnits="userSpaceOnUse"
       xlink:href="#linearGradient5803-2-7"
       id="linearGradient4907-4"
       y2="54.780239"
       x2="167.98311"
       y1="8.50811"
       x1="167.98311" />
    <linearGradient
       id="linearGradient5803-2-7">
      <stop
         offset="0"
         style="stop-color:#fffdf3;stop-opacity:1"
         id="stop5805-3-6" />
      <stop
         offset="1"
         style="stop-color:#fbebeb;stop-opacity:1"
         id="stop5807-0-0" />
    </linearGradient>
    <radialGradient
       gradientTransform="matrix(0,6.6677582,-8.1858766,0,105.8829,-59.462774)"
       gradientUnits="userSpaceOnUse"
       xlink:href="#linearGradient3242"
       id="radialGradient6305"
       fy="9.9941158"
       fx="8.276144"
       r="12.671875"
       cy="9.9941158"
       cx="8.276144" />
    <linearGradient
       id="linearGradient3242">
      <stop
         offset="0"
         style="stop-color:#f89b7e;stop-opacity:1"
         id="stop3244" />
      <stop
         offset="0.26238"
         style="stop-color:#e35d4f;stop-opacity:1"
         id="stop3246" />
      <stop
         offset="0.66093999"
         style="stop-color:#c6262e;stop-opacity:1"
         id="stop3248" />
      <stop
         offset="1"
         style="stop-color:#690b2c;stop-opacity:1"
         id="stop3250" />
    </linearGradient>
    <radialGradient
       gradientTransform="matrix(2.003784,0,0,1.4,27.98813,-17.4)"
       gradientUnits="userSpaceOnUse"
       xlink:href="#linearGradient3688-166-749"
       id="radialGradient3013"
       fy="43.5"
       fx="4.9929786"
       r="2.5"
       cy="43.5"
       cx="4.9929786" />
    <linearGradient
       id="linearGradient3688-166-749">
      <stop
         offset="0"
         style="stop-color:#181818;stop-opacity:1"
         id="stop2883" />
      <stop
         offset="1"
         style="stop-color:#181818;stop-opacity:0"
         id="stop2885" />
    </linearGradient>
    <radialGradient
       gradientTransform="matrix(2.003784,0,0,1.4,-20.01187,-104.4)"
       gradientUnits="userSpaceOnUse"
       xlink:href="#linearGradient3688-166-749"
       id="radialGradient3015"
       fy="43.5"
       fx="4.9929786"
       r="2.5"
       cy="43.5"
       cx="4.9929786" />
    <linearGradient
       id="linearGradient3702-501-757">
      <stop
         offset="0"
         style="stop-color:#181818;stop-opacity:0"
         id="stop2895" />
      <stop
         offset="0.5"
         style="stop-color:#181818;stop-opacity:1"
         id="stop2897" />
      <stop
         offset="1"
         style="stop-color:#181818;stop-opacity:0"
         id="stop2899" />
    </linearGradient>
    <linearGradient
       gradientUnits="userSpaceOnUse"
       xlink:href="#linearGradient3702-501-757"
       id="linearGradient3141"
       y2="39.999443"
       x2="25.058096"
       y1="47.027729"
       x1="25.058096" />
    <radialGradient
       r="12.671875"
       fy="9.9941158"
       fx="8.276144"
       cy="9.9941158"
       cx="8.276144"
       gradientTransform="matrix(0,6.6677582,-8.1858766,0,105.8829,-59.462774)"
       gradientUnits="userSpaceOnUse"
       id="radialGradient3036"
       xlink:href="#linearGradient3242"
       inkscape:collect="always" />
  </defs>
  <g
     id="g4227"
     style="font-style:normal;font-variant:normal;font-weight:normal;font-stretch:normal;font-size:29.80191803px;line-height:125%;font-family:'Droid Naskh Shift Alt';-inkscape-font-specification:'Droid Naskh Shift Alt';letter-spacing:0px;word-spacing:0px;fill:#ffffff;fill-opacity:1;stroke:none;stroke-width:1px;stroke-linecap:butt;stroke-linejoin:miter;stroke-opacity:1"
     transform="matrix(0.99414699,0,0,1.0058875,12.585072,-0.41623521)" />
  <g
     id="g4209"
     transform="translate(0,1)">
    <rect
       ry="2"
       rx="2"
       y="-44"
       x="-43"
       height="40"
       width="40"
       id="rect4203-6"
       style="fill:#d95951;fill-opacity:1;stroke:none"
       transform="matrix(0,-1,-1,0,0,0)" />
    <path
       inkscape:connector-curvature="0"
       id="rect4592"
       d="M 6,3 C 4.892,3 4,3.892 4,5 L 4,6 C 4,4.892 4.892,4 6,4 l 36,0 c 1.108,0 2,0.892 2,2 L 44,5 C 44,3.892 43.108,3 42,3 L 6,3 Z"
       style="opacity:0.2;fill:#ffffff;fill-opacity:1;stroke:none" />
    <path
       inkscape:connector-curvature="0"
       style="opacity:0.3;fill:#000000;fill-opacity:1;stroke:none"
       d="M 6,43 C 4.892,43 4,42.108 4,41 l 0,-1 c 0,1.108 0.892,2 2,2 l 36,0 c 1.108,0 2,-0.892 2,-2 l 0,1 c 0,1.108 -0.892,2 -2,2 L 6,43 Z"
       id="path4597" />
    <path
       style="display:inline;opacity:1;fill:#f2f2f2;fill-opacity:1;stroke:none;enable-background:new"
       id="path4112"
       inkscape:connector-curvature="0"
       d="M 16.269989,10.000114 11,33.37728 l 4.281865,0 2.487335,-10.461525 11.688439,0 L 18.511487,32.714281 21.365005,36 l 1.4616,-0.753125 c 2.763977,-1.421122 3.923212,-0.590174 6.020239,-0.0083 2.040089,0.566159 3.95797,1.172107 7.937007,-1.121489 l -0.7902,-4.048238 c -4.342531,3.087581 -5.716339,0.332856 -8.809207,0.223504 L 36.039195,22.799819 37,18.800099 l -18.547903,0 1.193984,-4.800355 12.157195,0 0.833724,-3.99973 -16.367011,0 z" />
    <path
       inkscape:connector-curvature="0"
       id="path4038"
       d="m 4,23 20,20 18,0 c 1.108,0 2,-0.892 2,-2 L 44,23 4,23 Z"
       style="opacity:0.1;fill:#000000;fill-opacity:1;stroke:none" />
    <path
       inkscape:connector-curvature="0"
       style="opacity:0.15;fill:url(#linearGradient4191);fill-opacity:1;stroke:none"
       d="m 6,3.9999995 c -1.108,0 -2,0.892 -2,2 L 4,23 l 39.999999,0 0,-17.0000005 c 0,-1.108 -0.892,-2 -2,-2 L 6,3.9999995 Z"
       id="path4026" />
  </g>
</svg>

<?xml version="1.0" encoding="UTF-8" standalone="no"?>
<!-- Created with Inkscape (http://www.inkscape.org/) -->
<svg id="svg2817" xmlns:rdf="http://www.w3.org/1999/02/22-rdf-syntax-ns#" xmlns="http://www.w3.org/2000/svg" height="48" width="48" version="1.0" xmlns:cc="http://creativecommons.org/ns#" xmlns:xlink="http://www.w3.org/1999/xlink" xmlns:dc="http://purl.org/dc/elements/1.1/">
 <metadata id="metadata57">
  <rdf:RDF>
   <cc:Work rdf:about="">
    <dc:format>image/svg+xml</dc:format>
    <dc:type rdf:resource="http://purl.org/dc/dcmitype/StillImage"/>
    <dc:title/>
   </cc:Work>
  </rdf:RDF>
 </metadata>
 <defs id="defs2819">
  <linearGradient id="linearGradient4191" y2="3.9509" gradientUnits="userSpaceOnUse" x2="24.239" y1="22.121" x1="24.292">
   <stop id="stop4187" offset="0"/>
   <stop id="stop4189" stop-opacity="0" offset="1"/>
  </linearGradient>
 </defs>
 <g id="g4209" transform="translate(0,1)">
  <rect id="rect4203-6" transform="matrix(0,-1,-1,0,0,0)" rx="2" ry="2" height="40" width="40" y="-44" x="-43" fill="#d95951"/>
  <path id="rect4592" opacity=".2" d="m6 3c-1.108 0-2 0.892-2 2v1c0-1.108 0.892-2 2-2h36c1.108 0 2 0.892 2 2v-1c0-1.108-0.892-2-2-2h-36z" fill="#fff"/>
  <path id="path4597" opacity=".3" d="m6 43c-1.108 0-2-0.892-2-2v-1c0 1.108 0.892 2 2 2h36c1.108 0 2-0.892 2-2v1c0 1.108-0.892 2-2 2h-36z"/>
  <path id="path4112" style="enable-background:new" d="m16.27 10-5.27 23.377h4.2819l2.4873-10.462h11.688l-10.946 9.799 2.854 3.286 1.4616-0.75312c2.764-1.4211 3.9232-0.59017 6.0202-0.0083 2.0401 0.56616 3.958 1.1721 7.937-1.1215l-0.7902-4.0482c-4.3425 3.0876-5.7163 0.33286-8.8092 0.2235l8.854-7.492 0.961-4h-18.548l1.194-4.8004h12.157l0.83372-3.9997h-16.367z" fill="#f2f2f2"/>
  <path id="path4038" opacity=".1" d="m4 23 20 20h18c1.108 0 2-0.892 2-2v-18h-40z"/>
  <path id="path4026" opacity=".15" d="m6 4c-1.108 0-2 0.892-2 2v17h40v-17c0-1.108-0.892-2-2-2h-36z" fill="url(#linearGradient4191)"/>
 </g>
</svg>
